actions/symbolic/edit-delete-symbolic.svg

<?xml version="1.0" encoding="UTF-8" standalone="no"?>
<svg
   xmlns:dc="http://purl.org/dc/elements/1.1/"
   xmlns:cc="http://creativecommons.org/ns#"
   xmlns:rdf="http://www.w3.org/1999/02/22-rdf-syntax-ns#"
   xmlns:svg="http://www.w3.org/2000/svg"
   xmlns="http://www.w3.org/2000/svg"
   xmlns:sodipodi="http://sodipodi.sourceforge.net/DTD/sodipodi-0.dtd"
   xmlns:inkscape="http://www.inkscape.org/namespaces/inkscape"
   viewBox="0 0 16 16"
   id="svg3255"
   version="1.1"
   inkscape:version="0.91 r13725"
   sodipodi:docname="edit-delete-symbolic.svg">
  <metadata
     id="metadata3263">
    <rdf:RDF>
      <cc:Work
         rdf:about="">
        <dc:format>image/svg+xml</dc:format>
        <dc:type
           rdf:resource="http://purl.org/dc/dcmitype/StillImage" />
      </cc:Work>
    </rdf:RDF>
  </metadata>
  <sodipodi:namedview
     pagecolor="#ffffff"
     bordercolor="#666666"
     borderopacity="1"
     objecttolerance="10"
     gridtolerance="10"
     guidetolerance="10"
     inkscape:pageopacity="0"
     inkscape:pageshadow="2"
     inkscape:window-width="640"
     inkscape:window-height="480"
     id="namedview3261"
     showgrid="false"
     inkscape:zoom="39.8125"
     inkscape:cx="-0.94191521"
     inkscape:cy="8"
     inkscape:current-layer="svg3255" />
  <defs
     id="defs3051">
    <style
       type="text/css"
       id="current-color-scheme">
      .ColorScheme-Text {
        color:#bebebe;
      }
      </style>
  </defs>
  <path
     style="color:#bebebe;fill:currentColor;fill-opacity:1;stroke:none"
     class="ColorScheme-Text"
     d="M 2.0623572,5.8716225 2.8135346,6.4823992 2.1065322,7.8918351 C 1.7530423,8.5417468 2.3603171,9.174851 2.7472421,9.395246 3.1281445,9.612191 3.7193395,9.637983 4.2716769,9.630168 L 5.2658692,7.9388225 6.0170391,8.3616569 4.7135318,5.8481551 2.0623572,5.8716301 Z m 0.1104525,3.4501915 1.6127998,3.100773 c 0.3240374,0.43065 0.9352948,0.532447 1.5686322,0.516795 l 1.7011722,0 0,-2.936329 L 3.829807,9.979583 C 3.3290471,10.010853 2.6735922,9.901243 2.1728097,9.321823 Z M 12.31979,3.6074429 11.442299,3.9950349 10.600468,2.6682641 C 10.225648,2.0314474 9.3991035,2.2772295 9.0263164,2.5225542 8.659334,2.7640689 8.351024,3.2896608 8.089829,3.7961726 L 9.0293164,5.5210431 8.3097665,5.9997449 11.054203,6.0319199 12.31979,3.6074654 Z M 9.366516,2.0353248 5.9785491,1.9999998 c -0.51903,0.08613 -0.9009299,0.5931144 -1.1948173,1.1771836 L 3.9589869,4.725549 6.4268465,6.1491222 8.0103965,3.2246208 C 8.2268465,2.753614 8.636744,2.2102096 9.366516,2.0353398 Z M 9.513891,13.99997 9.613536,13.013369 11.13677,12.890429 c 0.716918,-0.03247 0.911078,-0.903876 0.885623,-1.362126 -0.02504,-0.451116 -0.317332,-0.986541 -0.61641,-1.469833 L 9.5008485,10.07737 9.4472986,9.190368 8.0897465,11.672693 9.513846,14 Z m 2.753077,-1.925795 1.672208,-3.066476 c 0.179257,-0.5141847 -0.06166,-1.1075839 -0.4101,-1.6582332 L 12.62759,5.8481326 10.234708,7.4041557 11.924886,10.263294 c 0.290924,0.42534 0.548902,1.061857 0.342082,1.810881 z"
     id="path3259"
     inkscape:connector-curvature="0" />
</svg>

<svg xmlns="http://www.w3.org/2000/svg" xmlns:xlink="http://www.w3.org/1999/xlink" viewBox="0 0 16 16">
  <path id="a" fill="#bebebe" d="M12.32 3.607l-.878.388-.842-1.327c-.374-.637-1.2-.39-1.574-.145-.367.241-.675.767-.936 1.273l.94 1.725L8.31 6l2.744.032zM9.367 2.035L5.979 2c-.52.086-.901.593-1.195 1.177l-.825 1.549 2.468 1.423L8.01 3.225c.217-.471.627-1.015 1.357-1.19z"/>
  <use transform="rotate(120 8 8)" xlink:href="#a"/>
  <use transform="rotate(240 8 8)" xlink:href="#a"/>
</svg>
